images/50097984.svg

<?xml version="1.0" encoding="UTF-8"?>
<svg xmlns="http://www.w3.org/2000/svg" xmlns:xlink="http://www.w3.org/1999/xlink" width="300pt" height="300pt" viewBox="0 0 300 300" version="1.1">
<defs>
<g>
<symbol overflow="visible" id="glyph0-0">
<path style="stroke:none;" d="M 0.453125 1.59375 L 0.453125 -6.34375 L 4.953125 -6.34375 L 4.953125 1.59375 Z M 0.953125 1.09375 L 4.453125 1.09375 L 4.453125 -5.84375 L 0.953125 -5.84375 Z M 0.953125 1.09375 "/>
</symbol>
<symbol overflow="visible" id="glyph0-1">
<path style="stroke:none;" d="M 0.890625 -6.5625 L 4.65625 -6.5625 L 4.65625 -5.8125 L 1.765625 -5.8125 L 1.765625 -3.875 L 4.375 -3.875 L 4.375 -3.140625 L 1.765625 -3.140625 L 1.765625 0 L 0.890625 0 Z M 0.890625 -6.5625 "/>
</symbol>
<symbol overflow="visible" id="glyph0-2">
<path style="stroke:none;" d="M 0.890625 -6.5625 L 2.078125 -6.5625 L 4.984375 -1.078125 L 4.984375 -6.5625 L 5.84375 -6.5625 L 5.84375 0 L 4.65625 0 L 1.75 -5.484375 L 1.75 0 L 0.890625 0 Z M 0.890625 -6.5625 "/>
</symbol>
<symbol overflow="visible" id="glyph0-3">
<path style="stroke:none;" d="M 0.890625 -6.5625 L 1.765625 -6.5625 L 1.765625 -3.875 L 5 -3.875 L 5 -6.5625 L 5.890625 -6.5625 L 5.890625 0 L 5 0 L 5 -3.125 L 1.765625 -3.125 L 1.765625 0 L 0.890625 0 Z M 0.890625 -6.5625 "/>
</symbol>
</g>
</defs>
<g id="surface22637">
<rect x="0" y="0" width="300" height="300" style="fill:rgb(100%,100%,100%);fill-opacity:1;stroke:none;"/>
<path style="fill:none;stroke-width:1.2;stroke-linecap:butt;stroke-linejoin:miter;stroke:rgb(20%,80%,80%);stroke-opacity:1;stroke-miterlimit:10;" d="M 252.902344 167.058594 L 246.046875 159.679688 "/>
<path style="fill:none;stroke-width:1.2;stroke-linecap:butt;stroke-linejoin:miter;stroke:rgb(0%,0%,0%);stroke-opacity:1;stroke-miterlimit:10;" d="M 246.046875 159.679688 L 239.191406 152.300781 "/>
<path style=" stroke:none;fill-rule:nonzero;fill:rgb(100%,100%,100%);fill-opacity:1;" d="M 249.902344 161.558594 L 255.902344 161.558594 L 255.902344 172.558594 L 249.902344 172.558594 Z M 249.902344 161.558594 "/>
<g style="fill:rgb(20%,80%,80%);fill-opacity:1;">
  <use xlink:href="#glyph0-1" x="249.902344" y="170.22168"/>
</g>
<path style="fill:none;stroke-width:1.2;stroke-linecap:butt;stroke-linejoin:miter;stroke:rgb(0%,0%,0%);stroke-opacity:1;stroke-miterlimit:10;" d="M 239.191406 152.300781 L 219.554688 156.796875 "/>
<path style="fill:none;stroke-width:1.2;stroke-linecap:butt;stroke-linejoin:miter;stroke:rgb(0%,0%,0%);stroke-opacity:1;stroke-miterlimit:10;" d="M 236.167969 148.128906 L 220.460938 151.726562 "/>
<path style="fill:none;stroke-width:1.2;stroke-linecap:butt;stroke-linejoin:miter;stroke:rgb(0%,0%,0%);stroke-opacity:1;stroke-miterlimit:10;" d="M 245.113281 133.046875 L 239.191406 152.300781 "/>
<path style="fill:none;stroke-width:1.2;stroke-linecap:butt;stroke-linejoin:miter;stroke:rgb(0%,0%,0%);stroke-opacity:1;stroke-miterlimit:10;" d="M 219.554688 156.796875 L 205.84375 142.039062 "/>
<path style="fill:none;stroke-width:1.2;stroke-linecap:butt;stroke-linejoin:miter;stroke:rgb(0%,0%,0%);stroke-opacity:1;stroke-miterlimit:10;" d="M 205.84375 142.039062 L 196.027344 144.289062 "/>
<path style="fill:none;stroke-width:1.2;stroke-linecap:butt;stroke-linejoin:miter;stroke:rgb(0%,0%,100%);stroke-opacity:1;stroke-miterlimit:10;" d="M 196.027344 144.289062 L 186.207031 146.535156 "/>
<path style="fill:none;stroke-width:1.2;stroke-linecap:butt;stroke-linejoin:miter;stroke:rgb(0%,0%,0%);stroke-opacity:1;stroke-miterlimit:10;" d="M 205.84375 142.039062 L 211.769531 122.789062 "/>
<path style="fill:none;stroke-width:1.2;stroke-linecap:butt;stroke-linejoin:miter;stroke:rgb(0%,0%,0%);stroke-opacity:1;stroke-miterlimit:10;" d="M 210.964844 141.507812 L 215.707031 126.105469 "/>
<path style="fill:none;stroke-width:1.2;stroke-linecap:butt;stroke-linejoin:miter;stroke:rgb(0%,0%,100%);stroke-opacity:1;stroke-miterlimit:10;" d="M 186.207031 146.535156 L 179.351562 139.160156 "/>
<path style="fill:none;stroke-width:1.2;stroke-linecap:butt;stroke-linejoin:miter;stroke:rgb(0%,0%,0%);stroke-opacity:1;stroke-miterlimit:10;" d="M 179.351562 139.160156 L 172.496094 131.78125 "/>
<path style=" stroke:none;fill-rule:nonzero;fill:rgb(100%,100%,100%);fill-opacity:1;" d="M 179.207031 141.035156 L 193.207031 141.035156 L 193.207031 152.035156 L 179.207031 152.035156 Z M 179.207031 141.035156 "/>
<g style="fill:rgb(0%,0%,100%);fill-opacity:1;">
  <use xlink:href="#glyph0-2" x="179.207031" y="149.698242"/>
  <use xlink:href="#glyph0-3" x="186.18457" y="149.698242"/>
</g>
<path style="fill:none;stroke-width:1.2;stroke-linecap:butt;stroke-linejoin:miter;stroke:rgb(0%,0%,0%);stroke-opacity:1;stroke-miterlimit:10;" d="M 172.496094 131.78125 L 152.863281 136.277344 "/>
<path style="fill:none;stroke-width:1.2;stroke-linecap:butt;stroke-linejoin:miter;stroke:rgb(0%,0%,0%);stroke-opacity:1;stroke-miterlimit:10;" d="M 152.863281 136.277344 L 148.910156 145.539062 "/>
<path style="fill:none;stroke-width:1.2;stroke-linecap:butt;stroke-linejoin:miter;stroke:rgb(0%,0%,100%);stroke-opacity:1;stroke-miterlimit:10;" d="M 148.910156 145.539062 L 144.957031 154.804688 "/>
<path style="fill:none;stroke-width:1.2;stroke-linecap:butt;stroke-linejoin:miter;stroke:rgb(0%,0%,100%);stroke-opacity:1;stroke-miterlimit:10;" d="M 137.683594 123.035156 L 145.273438 129.65625 "/>
<path style="fill:none;stroke-width:1.2;stroke-linecap:butt;stroke-linejoin:miter;stroke:rgb(0%,0%,0%);stroke-opacity:1;stroke-miterlimit:10;" d="M 145.273438 129.65625 L 152.863281 136.277344 "/>
<path style="fill:none;stroke-width:1.2;stroke-linecap:butt;stroke-linejoin:miter;stroke:rgb(0%,0%,100%);stroke-opacity:1;stroke-miterlimit:10;" d="M 136.085938 127.929688 L 142.15625 133.226562 "/>
<path style="fill:none;stroke-width:1.2;stroke-linecap:butt;stroke-linejoin:miter;stroke:rgb(0%,0%,0%);stroke-opacity:1;stroke-miterlimit:10;" d="M 142.15625 133.226562 L 148.226562 138.523438 "/>
<path style="fill:none;stroke-width:1.2;stroke-linecap:butt;stroke-linejoin:miter;stroke:rgb(0%,0%,100%);stroke-opacity:1;stroke-miterlimit:10;" d="M 144.957031 154.804688 L 134.925781 153.910156 "/>
<path style="fill:none;stroke-width:1.2;stroke-linecap:butt;stroke-linejoin:miter;stroke:rgb(0%,0%,0%);stroke-opacity:1;stroke-miterlimit:10;" d="M 134.925781 153.910156 L 124.894531 153.011719 "/>
<path style=" stroke:none;fill-rule:nonzero;fill:rgb(100%,100%,100%);fill-opacity:1;" d="M 137.957031 149.304688 L 151.957031 149.304688 L 151.957031 160.304688 L 137.957031 160.304688 Z M 137.957031 149.304688 "/>
<g style="fill:rgb(0%,0%,100%);fill-opacity:1;">
  <use xlink:href="#glyph0-2" x="137.957031" y="157.967773"/>
  <use xlink:href="#glyph0-3" x="144.93457" y="157.967773"/>
</g>
<path style="fill:none;stroke-width:1.2;stroke-linecap:butt;stroke-linejoin:miter;stroke:rgb(0%,0%,0%);stroke-opacity:1;stroke-miterlimit:10;" d="M 124.894531 153.011719 L 120.398438 133.378906 "/>
<path style="fill:none;stroke-width:1.2;stroke-linecap:butt;stroke-linejoin:miter;stroke:rgb(0%,0%,0%);stroke-opacity:1;stroke-miterlimit:10;" d="M 129.066406 149.992188 L 125.46875 134.28125 "/>
<path style="fill:none;stroke-width:1.2;stroke-linecap:butt;stroke-linejoin:miter;stroke:rgb(0%,0%,0%);stroke-opacity:1;stroke-miterlimit:10;" d="M 124.894531 153.011719 L 111.652344 168.191406 "/>
<path style="fill:none;stroke-width:1.2;stroke-linecap:butt;stroke-linejoin:miter;stroke:rgb(0%,0%,0%);stroke-opacity:1;stroke-miterlimit:10;" d="M 120.398438 133.378906 L 129.039062 128.207031 "/>
<path style="fill:none;stroke-width:1.2;stroke-linecap:butt;stroke-linejoin:miter;stroke:rgb(0%,0%,100%);stroke-opacity:1;stroke-miterlimit:10;" d="M 129.039062 128.207031 L 137.683594 123.035156 "/>
<path style="fill:none;stroke-width:1.2;stroke-linecap:butt;stroke-linejoin:miter;stroke:rgb(0%,0%,0%);stroke-opacity:1;stroke-miterlimit:10;" d="M 120.398438 133.378906 L 101.871094 125.472656 "/>
<path style=" stroke:none;fill-rule:nonzero;fill:rgb(100%,100%,100%);fill-opacity:1;" d="M 134.683594 117.535156 L 141.683594 117.535156 L 141.683594 128.535156 L 134.683594 128.535156 Z M 134.683594 117.535156 "/>
<g style="fill:rgb(0%,0%,100%);fill-opacity:1;">
  <use xlink:href="#glyph0-2" x="134.683594" y="126.198242"/>
</g>
<path style="fill:none;stroke-width:1.2;stroke-linecap:butt;stroke-linejoin:miter;stroke:rgb(0%,0%,0%);stroke-opacity:1;stroke-miterlimit:10;" d="M 101.871094 125.472656 L 99.449219 105.476562 "/>
<path style="fill:none;stroke-width:1.2;stroke-linecap:butt;stroke-linejoin:miter;stroke:rgb(0%,0%,0%);stroke-opacity:1;stroke-miterlimit:10;" d="M 101.871094 125.472656 L 85.761719 137.566406 "/>
<path style="fill:none;stroke-width:1.2;stroke-linecap:butt;stroke-linejoin:miter;stroke:rgb(0%,0%,0%);stroke-opacity:1;stroke-miterlimit:10;" d="M 97.414062 122.890625 L 84.527344 132.566406 "/>
<path style="fill:none;stroke-width:1.2;stroke-linecap:butt;stroke-linejoin:miter;stroke:rgb(0%,0%,0%);stroke-opacity:1;stroke-miterlimit:10;" d="M 99.449219 105.476562 L 80.921875 97.570312 "/>
<path style="fill:none;stroke-width:1.2;stroke-linecap:butt;stroke-linejoin:miter;stroke:rgb(0%,0%,0%);stroke-opacity:1;stroke-miterlimit:10;" d="M 95.738281 109.042969 L 80.914062 102.722656 "/>
<path style="fill:none;stroke-width:1.2;stroke-linecap:butt;stroke-linejoin:miter;stroke:rgb(0%,0%,0%);stroke-opacity:1;stroke-miterlimit:10;" d="M 80.921875 97.570312 L 64.8125 109.664062 "/>
<path style="fill:none;stroke-width:1.2;stroke-linecap:butt;stroke-linejoin:miter;stroke:rgb(0%,0%,0%);stroke-opacity:1;stroke-miterlimit:10;" d="M 64.8125 109.664062 L 66.023438 119.664062 "/>
<path style="fill:none;stroke-width:1.2;stroke-linecap:butt;stroke-linejoin:miter;stroke:rgb(0%,0%,100%);stroke-opacity:1;stroke-miterlimit:10;" d="M 66.023438 119.664062 L 67.234375 129.664062 "/>
<path style="fill:none;stroke-width:1.2;stroke-linecap:butt;stroke-linejoin:miter;stroke:rgb(0%,0%,100%);stroke-opacity:1;stroke-miterlimit:10;" d="M 45.046875 105.785156 L 54.929688 107.726562 "/>
<path style="fill:none;stroke-width:1.2;stroke-linecap:butt;stroke-linejoin:miter;stroke:rgb(0%,0%,0%);stroke-opacity:1;stroke-miterlimit:10;" d="M 54.929688 107.726562 L 64.8125 109.664062 "/>
<path style="fill:none;stroke-width:1.2;stroke-linecap:butt;stroke-linejoin:miter;stroke:rgb(0%,0%,100%);stroke-opacity:1;stroke-miterlimit:10;" d="M 46.109375 110.824219 L 54.019531 112.378906 "/>
<path style="fill:none;stroke-width:1.2;stroke-linecap:butt;stroke-linejoin:miter;stroke:rgb(0%,0%,0%);stroke-opacity:1;stroke-miterlimit:10;" d="M 54.019531 112.378906 L 61.925781 113.929688 "/>
<path style="fill:none;stroke-width:1.2;stroke-linecap:butt;stroke-linejoin:miter;stroke:rgb(0%,0%,100%);stroke-opacity:1;stroke-miterlimit:10;" d="M 67.234375 129.664062 L 48.960938 138.144531 "/>
<path style="fill:none;stroke-width:1.2;stroke-linecap:butt;stroke-linejoin:miter;stroke:rgb(0%,0%,100%);stroke-opacity:1;stroke-miterlimit:10;" d="M 67.234375 129.664062 L 76.496094 133.617188 "/>
<path style="fill:none;stroke-width:1.2;stroke-linecap:butt;stroke-linejoin:miter;stroke:rgb(0%,0%,0%);stroke-opacity:1;stroke-miterlimit:10;" d="M 76.496094 133.617188 L 85.761719 137.566406 "/>
<path style=" stroke:none;fill-rule:nonzero;fill:rgb(100%,100%,100%);fill-opacity:1;" d="M 64.234375 124.164062 L 71.234375 124.164062 L 71.234375 135.164062 L 64.234375 135.164062 Z M 64.234375 124.164062 "/>
<g style="fill:rgb(0%,0%,100%);fill-opacity:1;">
  <use xlink:href="#glyph0-2" x="64.234375" y="132.827148"/>
</g>
<path style="fill:none;stroke-width:1.2;stroke-linecap:butt;stroke-linejoin:miter;stroke:rgb(0%,0%,100%);stroke-opacity:1;stroke-miterlimit:10;" d="M 48.960938 138.144531 L 42.105469 130.765625 "/>
<path style="fill:none;stroke-width:1.2;stroke-linecap:butt;stroke-linejoin:miter;stroke:rgb(0%,0%,0%);stroke-opacity:1;stroke-miterlimit:10;" d="M 42.105469 130.765625 L 35.25 123.386719 "/>
<path style="fill:none;stroke-width:1.2;stroke-linecap:butt;stroke-linejoin:miter;stroke:rgb(0%,0%,100%);stroke-opacity:1;stroke-miterlimit:10;" d="M 51.0625 133.441406 L 45.578125 127.539062 "/>
<path style="fill:none;stroke-width:1.2;stroke-linecap:butt;stroke-linejoin:miter;stroke:rgb(0%,0%,0%);stroke-opacity:1;stroke-miterlimit:10;" d="M 45.578125 127.539062 L 40.09375 121.636719 "/>
<path style=" stroke:none;fill-rule:nonzero;fill:rgb(100%,100%,100%);fill-opacity:1;" d="M 45.960938 132.644531 L 52.960938 132.644531 L 52.960938 143.644531 L 45.960938 143.644531 Z M 45.960938 132.644531 "/>
<g style="fill:rgb(0%,0%,100%);fill-opacity:1;">
  <use xlink:href="#glyph0-2" x="45.960938" y="141.307617"/>
</g>
<path style="fill:none;stroke-width:1.2;stroke-linecap:butt;stroke-linejoin:miter;stroke:rgb(0%,0%,0%);stroke-opacity:1;stroke-miterlimit:10;" d="M 35.25 123.386719 L 40.148438 114.585938 "/>
<path style="fill:none;stroke-width:1.2;stroke-linecap:butt;stroke-linejoin:miter;stroke:rgb(0%,0%,100%);stroke-opacity:1;stroke-miterlimit:10;" d="M 40.148438 114.585938 L 45.046875 105.785156 "/>
<path style=" stroke:none;fill-rule:nonzero;fill:rgb(100%,100%,100%);fill-opacity:1;" d="M 42.046875 100.285156 L 49.046875 100.285156 L 49.046875 111.285156 L 42.046875 111.285156 Z M 42.046875 100.285156 "/>
<g style="fill:rgb(0%,0%,100%);fill-opacity:1;">
  <use xlink:href="#glyph0-2" x="42.046875" y="108.948242"/>
</g>
<path style="fill:none;stroke-width:1.2;stroke-linecap:butt;stroke-linejoin:miter;stroke:rgb(0%,0%,0%);stroke-opacity:1;stroke-miterlimit:10;" d="M 111.652344 168.191406 L 101.769531 166.253906 "/>
<path style="fill:none;stroke-width:1.2;stroke-linecap:butt;stroke-linejoin:miter;stroke:rgb(0%,0%,100%);stroke-opacity:1;stroke-miterlimit:10;" d="M 101.769531 166.253906 L 91.886719 164.3125 "/>
<path style="fill:none;stroke-width:1.2;stroke-linecap:butt;stroke-linejoin:miter;stroke:rgb(0%,0%,0%);stroke-opacity:1;stroke-miterlimit:10;" d="M 108.761719 172.453125 L 100.855469 170.902344 "/>
<path style="fill:none;stroke-width:1.2;stroke-linecap:butt;stroke-linejoin:miter;stroke:rgb(0%,0%,100%);stroke-opacity:1;stroke-miterlimit:10;" d="M 100.855469 170.902344 L 92.949219 169.351562 "/>
<path style="fill:none;stroke-width:1.2;stroke-linecap:butt;stroke-linejoin:miter;stroke:rgb(0%,0%,0%);stroke-opacity:1;stroke-miterlimit:10;" d="M 118.175781 187.25 L 111.652344 168.191406 "/>
<path style="fill:none;stroke-width:1.2;stroke-linecap:butt;stroke-linejoin:miter;stroke:rgb(0%,0%,100%);stroke-opacity:1;stroke-miterlimit:10;" d="M 91.886719 164.3125 L 85.265625 171.902344 "/>
<path style="fill:none;stroke-width:1.2;stroke-linecap:butt;stroke-linejoin:miter;stroke:rgb(0%,0%,0%);stroke-opacity:1;stroke-miterlimit:10;" d="M 85.265625 171.902344 L 78.644531 179.492188 "/>
<path style=" stroke:none;fill-rule:nonzero;fill:rgb(100%,100%,100%);fill-opacity:1;" d="M 88.886719 158.8125 L 95.886719 158.8125 L 95.886719 169.8125 L 88.886719 169.8125 Z M 88.886719 158.8125 "/>
<g style="fill:rgb(0%,0%,100%);fill-opacity:1;">
  <use xlink:href="#glyph0-2" x="88.886719" y="167.475586"/>
</g>
<path style="fill:none;stroke-width:1.2;stroke-linecap:butt;stroke-linejoin:miter;stroke:rgb(0%,0%,0%);stroke-opacity:1;stroke-miterlimit:10;" d="M 78.644531 179.492188 L 85.167969 198.550781 "/>
<path style="fill:none;stroke-width:1.2;stroke-linecap:butt;stroke-linejoin:miter;stroke:rgb(0%,0%,0%);stroke-opacity:1;stroke-miterlimit:10;" d="M 83.777344 179.863281 L 89 195.109375 "/>
<path style="fill:none;stroke-width:1.2;stroke-linecap:butt;stroke-linejoin:miter;stroke:rgb(0%,0%,0%);stroke-opacity:1;stroke-miterlimit:10;" d="M 78.644531 179.492188 L 58.875 175.613281 "/>
<path style="fill:none;stroke-width:1.2;stroke-linecap:butt;stroke-linejoin:miter;stroke:rgb(0%,0%,0%);stroke-opacity:1;stroke-miterlimit:10;" d="M 85.167969 198.550781 L 104.933594 202.429688 "/>
<path style="fill:none;stroke-width:1.2;stroke-linecap:butt;stroke-linejoin:miter;stroke:rgb(0%,0%,0%);stroke-opacity:1;stroke-miterlimit:10;" d="M 104.933594 202.429688 L 118.175781 187.25 "/>
<path style="fill:none;stroke-width:1.2;stroke-linecap:butt;stroke-linejoin:miter;stroke:rgb(0%,0%,0%);stroke-opacity:1;stroke-miterlimit:10;" d="M 102.6875 197.792969 L 113.28125 185.652344 "/>
<path style="fill:none;stroke-width:1.2;stroke-linecap:butt;stroke-linejoin:miter;stroke:rgb(0%,0%,0%);stroke-opacity:1;stroke-miterlimit:10;" d="M 211.769531 122.789062 L 231.402344 118.292969 "/>
<path style="fill:none;stroke-width:1.2;stroke-linecap:butt;stroke-linejoin:miter;stroke:rgb(0%,0%,0%);stroke-opacity:1;stroke-miterlimit:10;" d="M 231.402344 118.292969 L 245.113281 133.046875 "/>
<path style="fill:none;stroke-width:1.2;stroke-linecap:butt;stroke-linejoin:miter;stroke:rgb(0%,0%,0%);stroke-opacity:1;stroke-miterlimit:10;" d="M 229.300781 122.992188 L 240.269531 134.800781 "/>
<path style="fill:none;stroke-width:1.2;stroke-linecap:butt;stroke-linejoin:miter;stroke:rgb(0%,0%,0%);stroke-opacity:1;stroke-miterlimit:10;" d="M 245.113281 133.046875 L 254.933594 130.800781 "/>
<path style="fill:none;stroke-width:1.2;stroke-linecap:butt;stroke-linejoin:miter;stroke:rgb(20%,80%,80%);stroke-opacity:1;stroke-miterlimit:10;" d="M 254.933594 130.800781 L 264.75 128.550781 "/>
<path style=" stroke:none;fill-rule:nonzero;fill:rgb(100%,100%,100%);fill-opacity:1;" d="M 261.75 123.050781 L 267.75 123.050781 L 267.75 134.050781 L 261.75 134.050781 Z M 261.75 123.050781 "/>
<g style="fill:rgb(20%,80%,80%);fill-opacity:1;">
  <use xlink:href="#glyph0-1" x="261.75" y="131.713867"/>
</g>
</g>
</svg>

<svg xmlns="http://www.w3.org/2000/svg" xmlns:xlink="http://www.w3.org/1999/xlink" width="300pt" height="300pt" viewBox="0 0 300 300"><defs><symbol overflow="visible"><path d="M.453 1.594v-7.938h4.5v7.938zm.5-.5h3.5v-6.938h-3.5zm0 0"/></symbol><symbol overflow="visible" id="a"><path d="M.89-6.563h3.766v.75h-2.89v1.938h2.61v.734h-2.61V0H.89zm0 0"/></symbol><symbol overflow="visible" id="b"><path d="M.89-6.563H2.08l2.906 5.485v-5.484h.86V0H4.656L1.75-5.484V0H.89zm0 0"/></symbol><symbol overflow="visible" id="c"><path d="M.89-6.563h.876v2.688H5v-2.688h.89V0H5v-3.125H1.766V0H.89zm0 0"/></symbol></defs><g><path fill="#fff" d="M0 0h300v300H0z"/><path d="M252.902 167.06l-6.855-7.38" stroke-width="1.2" stroke="#3cc" stroke-miterlimit="10" fill="none"/><path d="M246.047 159.68l-6.856-7.38" stroke-width="1.2" stroke="#000" stroke-miterlimit="10" fill="none"/><path d="M249.902 161.56h6v11h-6zm0 0" fill="#fff"/><use xlink:href="#a" x="249.902" y="170.222" fill="#3cc"/><path d="M239.19 152.3l-19.635 4.497M236.168 148.13l-15.707 3.597M245.113 133.047L239.19 152.3M219.555 156.797l-13.71-14.758M205.844 142.04l-9.817 2.25" stroke-width="1.2" stroke="#000" stroke-miterlimit="10" fill="none"/><path d="M196.027 144.29l-9.82 2.245" stroke-width="1.2" stroke="#00f" stroke-miterlimit="10" fill="none"/><path d="M205.844 142.04l5.926-19.25M210.965 141.508l4.742-15.403" stroke-width="1.2" stroke="#000" stroke-miterlimit="10" fill="none"/><path d="M186.207 146.535l-6.855-7.375" stroke-width="1.2" stroke="#00f" stroke-miterlimit="10" fill="none"/><path d="M179.352 139.16l-6.856-7.38" stroke-width="1.2" stroke="#000" stroke-miterlimit="10" fill="none"/><path d="M179.207 141.035h14v11h-14zm0 0" fill="#fff"/><g fill="#00f"><use xlink:href="#b" x="179.207" y="149.698"/><use xlink:href="#c" x="186.185" y="149.698"/></g><path d="M172.496 131.78l-19.633 4.497M152.863 136.277l-3.953 9.262" stroke-width="1.2" stroke="#000" stroke-miterlimit="10" fill="none"/><path d="M148.91 145.54l-3.953 9.265M137.684 123.035l7.59 6.62" stroke-width="1.2" stroke="#00f" stroke-miterlimit="10" fill="none"/><path d="M145.273 129.656l7.59 6.62" stroke-width="1.2" stroke="#000" stroke-miterlimit="10" fill="none"/><path d="M136.086 127.93l6.07 5.297" stroke-width="1.2" stroke="#00f" stroke-miterlimit="10" fill="none"/><path d="M142.156 133.227l6.07 5.296" stroke-width="1.2" stroke="#000" stroke-miterlimit="10" fill="none"/><path d="M144.957 154.805l-10.03-.895" stroke-width="1.2" stroke="#00f" stroke-miterlimit="10" fill="none"/><path d="M134.926 153.91l-10.03-.898" stroke-width="1.2" stroke="#000" stroke-miterlimit="10" fill="none"/><path d="M137.957 149.305h14v11h-14zm0 0" fill="#fff"/><g fill="#00f"><use xlink:href="#b" x="137.957" y="157.968"/><use xlink:href="#c" x="144.935" y="157.968"/></g><path d="M124.895 153.012l-4.497-19.633M129.066 149.992l-3.597-15.71M124.895 153.012l-13.243 15.18M120.398 133.38l8.64-5.173" stroke-width="1.2" stroke="#000" stroke-miterlimit="10" fill="none"/><path d="M129.04 128.207l8.644-5.172" stroke-width="1.2" stroke="#00f" stroke-miterlimit="10" fill="none"/><path d="M120.398 133.38l-18.527-7.907" stroke-width="1.2" stroke="#000" stroke-miterlimit="10" fill="none"/><path d="M134.684 117.535h7v11h-7zm0 0" fill="#fff"/><use xlink:href="#b" x="134.684" y="126.198" fill="#00f"/><path d="M101.87 125.473l-2.42-19.996M101.87 125.473l-16.108 12.093M97.414 122.89l-12.887 9.676M99.45 105.477L80.92 97.57M95.738 109.043l-14.824-6.32M80.922 97.57l-16.11 12.094M64.813 109.664l1.21 10" stroke-width="1.2" stroke="#000" stroke-miterlimit="10" fill="none"/><path d="M66.023 119.664l1.21 10M45.047 105.785l9.883 1.942" stroke-width="1.2" stroke="#00f" stroke-miterlimit="10" fill="none"/><path d="M54.93 107.727l9.883 1.937" stroke-width="1.2" stroke="#000" stroke-miterlimit="10" fill="none"/><path d="M46.11 110.824l7.91 1.555" stroke-width="1.2" stroke="#00f" stroke-miterlimit="10" fill="none"/><path d="M54.02 112.38l7.906 1.55" stroke-width="1.2" stroke="#000" stroke-miterlimit="10" fill="none"/><path d="M67.234 129.664l-18.273 8.48M67.234 129.664l9.262 3.953" stroke-width="1.2" stroke="#00f" stroke-miterlimit="10" fill="none"/><path d="M76.496 133.617l9.266 3.95" stroke-width="1.2" stroke="#000" stroke-miterlimit="10" fill="none"/><path d="M64.234 124.164h7v11h-7zm0 0" fill="#fff"/><use xlink:href="#b" x="64.234" y="132.827" fill="#00f"/><path d="M48.96 138.145l-6.855-7.38" stroke-width="1.2" stroke="#00f" stroke-miterlimit="10" fill="none"/><path d="M42.105 130.766l-6.855-7.38" stroke-width="1.2" stroke="#000" stroke-miterlimit="10" fill="none"/><path d="M51.063 133.44l-5.485-5.9" stroke-width="1.2" stroke="#00f" stroke-miterlimit="10" fill="none"/><path d="M45.578 127.54l-5.484-5.903" stroke-width="1.2" stroke="#000" stroke-miterlimit="10" fill="none"/><path d="M45.96 132.645h7v11h-7zm0 0" fill="#fff"/><use xlink:href="#b" x="45.961" y="141.308" fill="#00f"/><path d="M35.25 123.387l4.898-8.8" stroke-width="1.2" stroke="#000" stroke-miterlimit="10" fill="none"/><path d="M40.148 114.586l4.9-8.8" stroke-width="1.2" stroke="#00f" stroke-miterlimit="10" fill="none"/><path d="M42.047 100.285h7v11h-7zm0 0" fill="#fff"/><use xlink:href="#b" x="42.047" y="108.948" fill="#00f"/><path d="M111.652 168.19l-9.882-1.936" stroke-width="1.2" stroke="#000" stroke-miterlimit="10" fill="none"/><path d="M101.77 166.254l-9.883-1.94" stroke-width="1.2" stroke="#00f" stroke-miterlimit="10" fill="none"/><path d="M108.762 172.453l-7.907-1.55" stroke-width="1.2" stroke="#000" stroke-miterlimit="10" fill="none"/><path d="M100.855 170.902l-7.906-1.55" stroke-width="1.2" stroke="#00f" stroke-miterlimit="10" fill="none"/><path d="M118.176 187.25l-6.524-19.06" stroke-width="1.2" stroke="#000" stroke-miterlimit="10" fill="none"/><path d="M91.887 164.313l-6.62 7.59" stroke-width="1.2" stroke="#00f" stroke-miterlimit="10" fill="none"/><path d="M85.266 171.902l-6.62 7.59" stroke-width="1.2" stroke="#000" stroke-miterlimit="10" fill="none"/><path d="M88.887 158.813h7v11h-7zm0 0" fill="#fff"/><use xlink:href="#b" x="88.887" y="167.476" fill="#00f"/><path d="M78.645 179.492l6.523 19.06M83.777 179.863L89 195.11M78.645 179.492l-19.77-3.88M85.168 198.55l19.766 3.88M104.934 202.43l13.242-15.18M102.688 197.793l10.593-12.14M211.77 122.79l19.632-4.497M231.402 118.293l13.71 14.754M229.3 122.992l10.97 11.81M245.113 133.047l9.82-2.246" stroke-width="1.2" stroke="#000" stroke-miterlimit="10" fill="none"/><path d="M254.934 130.8l9.816-2.25" stroke-width="1.2" stroke="#3cc" stroke-miterlimit="10" fill="none"/><path d="M261.75 123.05h6v11h-6zm0 0" fill="#fff"/><use xlink:href="#a" x="261.75" y="131.714" fill="#3cc"/></g></svg>
